SVG_Azure_All/Azure Arc Azure Stack HCI.svg

<?xml version="1.0" encoding="UTF-8" standalone="no"?>
<!-- Generated by Microsoft Visio, SVG Export Azure Arc Azure Stack HCI.svg Page-1 -->

<svg
   xmlns:dc="http://purl.org/dc/elements/1.1/"
   xmlns:cc="http://creativecommons.org/ns#"
   xmlns:rdf="http://www.w3.org/1999/02/22-rdf-syntax-ns#"
   xmlns:svg="http://www.w3.org/2000/svg"
   xmlns="http://www.w3.org/2000/svg"
   xmlns:sodipodi="http://sodipodi.sourceforge.net/DTD/sodipodi-0.dtd"
   xmlns:inkscape="http://www.inkscape.org/namespaces/inkscape"
   width="0.78736246in"
   height="0.7875672in"
   viewBox="0 0 56.690005 56.70473"
   xml:space="preserve"
   class="st7"
   version="1.1"
   id="svg55"
   sodipodi:docname="Azure Arc Azure Stack HCI.svg"
   style="font-size:12px;overflow:visible;color-interpolation-filters:sRGB;fill:none;fill-rule:evenodd;stroke-linecap:square;stroke-miterlimit:3"
   inkscape:version="0.92.5 (2060ec1f9f, 2020-04-08)"><metadata
   id="metadata59"><rdf:RDF><cc:Work
       rdf:about=""><dc:format>image/svg+xml</dc:format><dc:type
         rdf:resource="http://purl.org/dc/dcmitype/StillImage" /></cc:Work></rdf:RDF></metadata><sodipodi:namedview
   pagecolor="#ffffff"
   bordercolor="#666666"
   borderopacity="1"
   objecttolerance="10"
   gridtolerance="10"
   guidetolerance="10"
   inkscape:pageopacity="0"
   inkscape:pageshadow="2"
   inkscape:window-width="640"
   inkscape:window-height="480"
   id="namedview57"
   showgrid="false"
   inkscape:zoom="1.4192218"
   inkscape:cx="37.795389"
   inkscape:cy="37.789903"
   inkscape:window-x="0"
   inkscape:window-y="0"
   inkscape:window-maximized="0"
   inkscape:current-layer="svg55" />
	<style
   type="text/css"
   id="style2">
	<![CDATA[
		.st1 {fill:#5ea0ef;stroke:none;stroke-linecap:butt;stroke-width:34}
		.st2 {fill:#50e6ff;stroke:none;stroke-linecap:butt;stroke-width:34}
		.st3 {fill:url(#grad0-10);stroke:none;stroke-linecap:butt;stroke-width:34}
		.st4 {fill:#9cebff;stroke:none;stroke-linecap:butt;stroke-width:34}
		.st5 {fill:#32bedd;stroke:none;stroke-linecap:butt;stroke-width:34}
		.st6 {fill:#ffffff;stroke:none;stroke-linecap:butt;stroke-width:34}
		.st7 {fill:none;fill-rule:evenodd;font-size:12px;overflow:visible;stroke-linecap:square;stroke-miterlimit:3}
	]]>
	</style>

	<defs
   id="Patterns_And_Gradients">
		<linearGradient
   id="grad0-10"
   x1="0"
   y1="98.915084"
   x2="48.097395"
   y2="98.915084"
   gradientTransform="scale(1.1786501,0.84842821)"
   gradientUnits="userSpaceOnUse">
			<stop
   offset="0"
   stop-color="#0078d4"
   stop-opacity="1"
   id="stop4" />
			<stop
   offset="1"
   stop-color="#5ea0ef"
   stop-opacity="1"
   id="stop6" />
		</linearGradient>
	</defs>
	<g
   id="g53"
   transform="translate(-34,-33.995648)">
		<title
   id="title10">Page-1</title>
		<g
   id="group8630-1"
   transform="translate(34,-34.0157)">
			<title
   id="title12">Azure Arc Azure Stack HCI</title>
			<g
   id="group8631-2">
				<title
   id="title14">Sheet.8631</title>
				<g
   id="shape8632-3"
   transform="translate(1.70394)">
					<title
   id="title16">Sheet.8632</title>
					<path
   d="m 53.63,115.8 c -0.51,2.24 -3.25,4.42 -8.19,6.13 a 67.5748,68.5879 0 0 1 -37.96,0.05 c -4.57,-1.64 -7.03,-3.71 -7.41,-5.85 -0.07,-0.38 0,-6.25 0,-6.25 l 53.66,-0.5 c 0,0 -0.04,6.15 -0.1,6.42 z"
   class="st1"
   id="path18"
   inkscape:connector-curvature="0"
   style="fill:#5ea0ef;stroke:none;stroke-width:34;stroke-linecap:butt" />
				</g>
				<g
   id="shape8633-5"
   transform="rotate(-0.575,-523.63528,-58.608838)">
					<title
   id="title21">Sheet.8633</title>
					<ellipse
   cx="26.850401"
   cy="115.295"
   rx="26.850401"
   ry="9.4210396"
   class="st2"
   id="ellipse23"
   style="fill:#50e6ff;stroke:none;stroke-width:34;stroke-linecap:butt" />
				</g>
				<g
   id="shape8634-7"
   transform="translate(0,-15.911)">
					<title
   id="title26">Sheet.8634</title>
					<path
   d="M 56.69,111.94 A 12.737,12.928 -180 0 0 45.64,99.52 16.063,16.3038 -180 0 0 29.1,83.93 16.4661,16.713 -180 0 0 13.35,94.83 15.2,15.4279 -180 0 0 0,109.67 15.4331,15.6644 -180 0 0 15.96,124.72 c 0.48,0 0.95,-0.03 1.41,-0.06 h 25.85 a 2.57953,2.6182 -180 0 0 0.68,-0.11 12.8913,13.0846 -180 0 0 12.79,-12.61 z"
   class="st3"
   id="path28"
   inkscape:connector-curvature="0"
   style="fill:url(#grad0-10);stroke:none;stroke-width:34;stroke-linecap:butt" />
				</g>
				<g
   id="shape8635-11"
   transform="translate(14.0787,-29.3697)">
					<title
   id="title31">Sheet.8635</title>
					<path
   d="m 0,123.76 a 0.944904,0.959069 -180 0 0 0.944882,0.95905 L 27.32,124.72 a 0.944904,0.959069 -180 0 0 0.944882,-0.95905 L 28.26,117.83 a 0.944904,0.959069 -180 0 0 -0.944882,-0.95905 L 0.94,116.87 a 0.944904,0.959069 -180 0 0 -0.944882,0.95905 z"
   class="st4"
   id="path33"
   inkscape:connector-curvature="0"
   style="fill:#9cebff;stroke:none;stroke-width:34;stroke-linecap:butt" />
				</g>
				<g
   id="shape8636-13"
   transform="translate(14.0787,-20.2395)">
					<title
   id="title36">Sheet.8636</title>
					<path
   d="m 0,123.76 a 0.944904,0.959069 -180 0 0 0.944882,0.95905 L 27.32,124.72 a 0.944904,0.959069 -180 0 0 0.944882,-0.95905 L 28.26,117.83 a 0.944904,0.959069 -180 0 0 -0.944882,-0.95905 L 0.94,116.87 a 0.944904,0.959069 -180 0 0 -0.944882,0.95905 z"
   class="st2"
   id="path38"
   inkscape:connector-curvature="0"
   style="fill:#50e6ff;stroke:none;stroke-width:34;stroke-linecap:butt" />
				</g>
				<g
   id="shape8637-15"
   transform="translate(14.0787,-10.9559)">
					<title
   id="title41">Sheet.8637</title>
					<path
   d="m 0,123.76 a 0.944904,0.959069 -180 0 0 0.944882,0.95905 L 27.32,124.72 a 0.944904,0.959069 -180 0 0 0.944882,-0.95905 L 28.26,117.83 a 0.944904,0.959069 -180 0 0 -0.944882,-0.95905 L 0.94,116.87 a 0.944904,0.959069 -180 0 0 -0.944882,0.95905 z"
   class="st5"
   id="path43"
   inkscape:connector-curvature="0"
   style="fill:#32bedd;stroke:none;stroke-width:34;stroke-linecap:butt" />
				</g>
				<g
   id="shape8638-17"
   transform="translate(37.9528,-12.3274)">
					<title
   id="title46">Sheet.8638</title>
					<path
   d="M 1.63,103.35 H 0.47 a 0.472441,0.479524 0 0 1 -0.472441,-0.47952 L 0,101.68 a 0.472441,0.479524 0 0 1 0.472441,-0.47952 L 1.64,101.2 a 0.472441,0.479524 0 0 1 0.472441,0.47952 L 2.11,102.87 a 0.472441,0.479524 0 0 1 -0.475591,0.47952 z m 0.48,2.47 v -1.18 A 0.472441,0.479524 -180 0 0 1.637559,104.16048 L 0.47,104.16 a 0.472441,0.479524 -180 0 0 -0.472441,0.47952 L 0,105.82 a 0.472441,0.479524 -180 0 0 0.472441,0.47952 L 1.64,106.3 a 0.472441,0.479524 -180 0 0 0.469291,-0.47952 z m 0,6.18 v -1.19 A 0.472441,0.479524 -180 0 0 1.637559,110.33048 L 0.47,110.33 a 0.472441,0.479524 -180 0 0 -0.472441,0.47952 L 0,111.99 a 0.472441,0.479524 -180 0 0 0.472441,0.47952 L 1.64,112.47 a 0.472441,0.479524 -180 0 0 0.469291,-0.47313 z m 0,2.95 v -1.18 A 0.472441,0.479524 -180 0 0 1.637559,113.29048 L 0.47,113.29 a 0.472441,0.479524 -180 0 0 -0.472441,0.47952 L 0,114.96 a 0.472441,0.479524 -180 0 0 0.472441,0.47952 L 1.64,115.44 a 0.472441,0.479524 -180 0 0 0.469291,-0.47952 z m 0,6.33 V 120.1 A 0.472441,0.479524 -180 0 0 1.637559,119.62048 L 0.47,119.62 a 0.472441,0.479524 -180 0 0 -0.472441,0.47952 L 0,121.28 a 0.472441,0.479524 -180 0 0 0.472441,0.47952 L 1.64,121.76 a 0.472441,0.479524 -180 0 0 0.469291,-0.47952 z m 0,2.96 v -1.19 A 0.472441,0.479524 -180 0 0 1.637559,122.57048 L 0.47,122.57 a 0.472441,0.479524 -180 0 0 -0.472441,0.47952 L 0,124.24 a 0.472441,0.479524 -180 0 0 0.472441,0.47952 L 1.64,124.72 a 0.472441,0.479524 -180 0 0 0.469291,-0.48272 z"
   class="st6"
   id="path48"
   inkscape:connector-curvature="0"
   style="fill:#ffffff;stroke:none;stroke-width:34;stroke-linecap:butt" />
				</g>
			</g>
		</g>
	</g>
</svg>

<?xml version="1.0" encoding="UTF-8" standalone="no"?>
<!DOCTYPE svg PUBLIC "-//W3C//DTD SVG 1.1//EN" "http://www.w3.org/Graphics/SVG/1.1/DTD/svg11.dtd">
<!-- Generated by Microsoft Visio, SVG Export Azure Arc Azure Stack HCI.svg Page-1 -->
<svg xmlns="http://www.w3.org/2000/svg" xmlns:xlink="http://www.w3.org/1999/xlink" xmlns:ev="http://www.w3.org/2001/xml-events"
		width="1.73185in" height="1.73217in" viewBox="0 0 124.693 124.716" xml:space="preserve" color-interpolation-filters="sRGB"
		class="st7">
	<style type="text/css">
	<![CDATA[
		.st1 {fill:#5ea0ef;stroke:none;stroke-linecap:butt;stroke-width:34}
		.st2 {fill:#50e6ff;stroke:none;stroke-linecap:butt;stroke-width:34}
		.st3 {fill:url(#grad0-10);stroke:none;stroke-linecap:butt;stroke-width:34}
		.st4 {fill:#9cebff;stroke:none;stroke-linecap:butt;stroke-width:34}
		.st5 {fill:#32bedd;stroke:none;stroke-linecap:butt;stroke-width:34}
		.st6 {fill:#ffffff;stroke:none;stroke-linecap:butt;stroke-width:34}
		.st7 {fill:none;fill-rule:evenodd;font-size:12px;overflow:visible;stroke-linecap:square;stroke-miterlimit:3}
	]]>
	</style>

	<defs id="Patterns_And_Gradients">
		<linearGradient id="grad0-10" x1="0" y1="0" x2="1" y2="0" gradientTransform="rotate(-90 0.5 0.5)">
			<stop offset="0" stop-color="#0078d4" stop-opacity="1"/>
			<stop offset="1" stop-color="#5ea0ef" stop-opacity="1"/>
		</linearGradient>
	</defs>
	<g>
		<title>Page-1</title>
		<g id="group8435-1" transform="translate(34,-34.0157)">
			<title>Azure Arc Azure Stack HCI</title>
			<g id="group8436-2">
				<title>Sheet.8436</title>
				<g id="shape8437-3" transform="translate(1.70394,-2.70006E-13)">
					<title>Sheet.8437</title>
					<path d="M53.63 115.8 C53.12 118.04 50.38 120.22 45.44 121.93 A67.5748 68.5879 0 0 1 7.48 121.98 C2.91 120.34
								 0.45 118.27 0.07 116.13 C0 115.75 0.07 109.88 0.07 109.88 L53.73 109.38 C53.73 109.38 53.69 115.53
								 53.63 115.8 Z" class="st1"/>
				</g>
				<g id="shape8438-5" transform="translate(0.561799,-5.25788) rotate(-0.575)">
					<title>Sheet.8438</title>
					<ellipse cx="26.8504" cy="115.295" rx="26.8504" ry="9.42104" class="st2"/>
				</g>
				<g id="shape8439-7" transform="translate(0,-15.911)">
					<title>Sheet.8439</title>
					<path d="M56.69 111.94 A12.737 12.928 -180 0 0 45.64 99.52 A16.063 16.3038 -180 0 0 29.1 83.93 A16.4661 16.713
								 -180 0 0 13.35 94.83 A15.2 15.4279 -180 0 0 0 109.67 A15.4331 15.6644 -180 0 0 15.96 124.72 C16.44
								 124.72 16.91 124.69 17.37 124.66 L43.22 124.66 A2.57953 2.6182 -180 0 0 43.9 124.55 A12.8913 13.0846
								 -180 0 0 56.69 111.94 Z" class="st3"/>
				</g>
				<g id="shape8440-11" transform="translate(14.0787,-29.3697)">
					<title>Sheet.8440</title>
					<path d="M0 123.76 a0.944904 0.959069 -180 0 0 0.944882 0.959047 L27.32 124.72 a0.944904 0.959069 -180 0 0 0.944882
								 -0.959047 L28.26 117.83 a0.944904 0.959069 -180 0 0 -0.944882 -0.959047 L0.94 116.87 a0.944904 0.959069
								 -180 0 0 -0.944882 0.959047 L0 123.76 Z" class="st4"/>
				</g>
				<g id="shape8441-13" transform="translate(14.0787,-20.2395)">
					<title>Sheet.8441</title>
					<path d="M0 123.76 a0.944904 0.959069 -180 0 0 0.944882 0.959047 L27.32 124.72 a0.944904 0.959069 -180 0 0 0.944882
								 -0.959047 L28.26 117.83 a0.944904 0.959069 -180 0 0 -0.944882 -0.959047 L0.94 116.87 a0.944904 0.959069
								 -180 0 0 -0.944882 0.959047 L0 123.76 Z" class="st2"/>
				</g>
				<g id="shape8442-15" transform="translate(14.0787,-10.9559)">
					<title>Sheet.8442</title>
					<path d="M0 123.76 a0.944904 0.959069 -180 0 0 0.944882 0.959047 L27.32 124.72 a0.944904 0.959069 -180 0 0 0.944882
								 -0.959047 L28.26 117.83 a0.944904 0.959069 -180 0 0 -0.944882 -0.959047 L0.94 116.87 a0.944904 0.959069
								 -180 0 0 -0.944882 0.959047 L0 123.76 Z" class="st5"/>
				</g>
				<g id="shape8443-17" transform="translate(37.9528,-12.3274)">
					<title>Sheet.8443</title>
					<path d="M1.63 103.35 L0.47 103.35 a0.472441 0.479524 0 0 1 -0.472441 -0.479524 L0 101.68 a0.472441 0.479524
								 0 0 1 0.472441 -0.479524 L1.64 101.2 a0.472441 0.479524 0 0 1 0.472441 0.479524 L2.11 102.87 a0.472441
								 0.479524 0 0 1 -0.475591 0.479524 ZM2.11 105.82 L2.11 104.64 a0.472441 0.479524 -180 0 0 -0.472441
								 -0.479524 L0.47 104.16 a0.472441 0.479524 -180 0 0 -0.472441 0.479524 L0 105.82 a0.472441 0.479524
								 -180 0 0 0.472441 0.479524 L1.64 106.3 a0.472441 0.479524 -180 0 0 0.469291 -0.479524 ZM2.11 112
								 L2.11 110.81 a0.472441 0.479524 -180 0 0 -0.472441 -0.479524 L0.47 110.33 a0.472441 0.479524 -180
								 0 0 -0.472441 0.479524 L0 111.99 a0.472441 0.479524 -180 0 0 0.472441 0.479524 L1.64 112.47 a0.472441
								 0.479524 -180 0 0 0.469291 -0.47313 ZM2.11 114.95 L2.11 113.77 a0.472441 0.479524 -180 0 0 -0.472441
								 -0.479524 L0.47 113.29 a0.472441 0.479524 -180 0 0 -0.472441 0.479524 L0 114.96 a0.472441 0.479524
								 -180 0 0 0.472441 0.479524 L1.64 115.44 a0.472441 0.479524 -180 0 0 0.469291 -0.479524 L2.11 114.95
								 ZM2.11 121.28 L2.11 120.1 a0.472441 0.479524 -180 0 0 -0.472441 -0.479524 L0.47 119.62 a0.472441
								 0.479524 -180 0 0 -0.472441 0.479524 L0 121.28 a0.472441 0.479524 -180 0 0 0.472441 0.479524 L1.64
								 121.76 a0.472441 0.479524 -180 0 0 0.469291 -0.479524 ZM2.11 124.24 L2.11 123.05 a0.472441 0.479524
								 -180 0 0 -0.472441 -0.479524 L0.47 122.57 a0.472441 0.479524 -180 0 0 -0.472441 0.479524 L0 124.24
								 a0.472441 0.479524 -180 0 0 0.472441 0.479524 L1.64 124.72 a0.472441 0.479524 -180 0 0 0.469291
								 -0.48272 L2.11 124.24 Z" class="st6"/>
				</g>
			</g>
		</g>
	</g>
</svg>
